!! 00000] TT[00
!! NN
!!!OTL: Yili xia tu yike yang
!!!ARE: Asia, China,ÿJiangsu, Gaochun(Nord)
!! Ethnic Group: Han
!! III, 477
!!!SCT: C0327
!!!YEM: Copyright 1995, estate of Helmut Schaffrath.
**kern
*ICvox
*Ivox
*M2/4
*k[f#c#]
*D:
{8f#
8f#
8f#
8a
=1
8ff#
4ff#
8ee
=2
8dd
8dd
8b
8b
=3
16b
16a
4.f#}
=4
{8b
8dd
8dd
8b
=5
4b
4dd
=6
8a
8b
8a
8f#
=7
2f#}
=8
{8f#
8f#
8f#
8a
=9
8ff#
8ff#
8ff#
8ee
=10
8dd
8dd
8b
8a
=11
16a
16b
4.f#}
=12
{4dd
4f#
=13
4dd
8ee
8dd
=14
8a
8b
8a
8f#
=15
2f#}
==
!!!AGN: Shange. Chang nongshi
!! Tonart Zhao ist sehr selten bei den Han.
!!    Eine Verzierung, Glissando.
!!!ONB: ESAC (Essen Associative Code) Database: CHINA
!!!AMT: simple duple
!!!AIN: vox
!!!EED: Helmut Schaffrath
!!!EEV: 1.0
*-
